actions/48/mail-reply-all.svg

<?xml version="1.0" encoding="UTF-8" standalone="no"?>
<svg
   xmlns:dc="http://purl.org/dc/elements/1.1/"
   xmlns:cc="http://creativecommons.org/ns#"
   xmlns:rdf="http://www.w3.org/1999/02/22-rdf-syntax-ns#"
   xmlns:svg="http://www.w3.org/2000/svg"
   xmlns="http://www.w3.org/2000/svg"
   xmlns:xlink="http://www.w3.org/1999/xlink"
   id="svg4143"
   height="48"
   width="48"
   version="1.1">
  <defs
     id="defs4145">
    <linearGradient
       gradientTransform="matrix(0,-1.1363095,-1.2208188,0,54.815205,53.703806)"
       gradientUnits="userSpaceOnUse"
       xlink:href="#linearGradient4087-4"
       id="linearGradient3198"
       y2="15.991243"
       x2="20.576487"
       y1="15.991243"
       x1="38.940514" />
    <linearGradient
       id="linearGradient4087-4">
      <stop
         offset="0"
         style="stop-color:#ffffff;stop-opacity:1"
         id="stop4089-0" />
      <stop
         offset="0.51153916"
         style="stop-color:#ffffff;stop-opacity:0.23529412"
         id="stop4091-5" />
      <stop
         offset="0.58522105"
         style="stop-color:#ffffff;stop-opacity:0.15686275"
         id="stop4093-9" />
      <stop
         offset="1"
         style="stop-color:#ffffff;stop-opacity:0.39215687"
         id="stop4095-4" />
    </linearGradient>
    <linearGradient
       gradientTransform="matrix(-1.0417199,0,0,0.96960863,56.672383,1.2469198)"
       gradientUnits="userSpaceOnUse"
       xlink:href="#linearGradient2867-449-88-871-390-598-476-591-434-148-57-177-6"
       id="linearGradient3201"
       y2="42.03978"
       x2="23.731871"
       y1="4.4175272"
       x1="23.731871" />
    <linearGradient
       id="linearGradient2867-449-88-871-390-598-476-591-434-148-57-177-6">
      <stop
         offset="0"
         style="stop-color:#90dbec;stop-opacity:1"
         id="stop3750-9" />
      <stop
         offset="0.26238"
         style="stop-color:#55c1ec;stop-opacity:1"
         id="stop3752-2" />
      <stop
         offset="0.704952"
         style="stop-color:#3689e6;stop-opacity:1"
         id="stop3754-2" />
      <stop
         offset="1"
         style="stop-color:#2b63a0;stop-opacity:1"
         id="stop3756-4" />
    </linearGradient>
    <radialGradient
       gradientTransform="matrix(1,0,0,0.536723,0,16.87306)"
       gradientUnits="userSpaceOnUse"
       xlink:href="#linearGradient8662"
       id="radialGradient3140"
       fy="36.421127"
       fx="24.837126"
       r="15.644737"
       cy="36.421127"
       cx="24.837126" />
    <linearGradient
       id="linearGradient8662">
      <stop
         offset="0"
         style="stop-color:#000000;stop-opacity:1"
         id="stop8664" />
      <stop
         offset="1"
         style="stop-color:#000000;stop-opacity:0"
         id="stop8666" />
    </linearGradient>
    <radialGradient
       gradientTransform="matrix(1,0,0,0.536723,0,16.87306)"
       gradientUnits="userSpaceOnUse"
       xlink:href="#linearGradient8662-7"
       id="radialGradient4195"
       fy="36.421127"
       fx="24.837126"
       r="15.644737"
       cy="36.421127"
       cx="24.837126" />
    <linearGradient
       id="linearGradient8662-7">
      <stop
         offset="0"
         style="stop-color:#000000;stop-opacity:1"
         id="stop8664-0" />
      <stop
         offset="1"
         style="stop-color:#000000;stop-opacity:0"
         id="stop8666-1" />
    </linearGradient>
    <linearGradient
       gradientTransform="matrix(0,-1.1363095,-1.2208188,0,42.815155,53.703806)"
       gradientUnits="userSpaceOnUse"
       xlink:href="#linearGradient4087-4"
       id="linearGradient3198-5-6"
       y2="15.991243"
       x2="20.576487"
       y1="15.991243"
       x1="38.940514" />
    <linearGradient
       gradientTransform="matrix(-1.0417199,0,0,0.96960863,44.672333,1.2469199)"
       gradientUnits="userSpaceOnUse"
       xlink:href="#linearGradient4330"
       id="linearGradient3254-4"
       y2="51.898727"
       x2="23.731871"
       y1="4.4175272"
       x1="23.731871" />
    <linearGradient
       id="linearGradient4330">
      <stop
         offset="0"
         style="stop-color:#f0c1ff;stop-opacity:1"
         id="stop4332" />
      <stop
         offset="0.26238"
         style="stop-color:#c5a3f2;stop-opacity:1"
         id="stop4334" />
      <stop
         offset="0.704952"
         style="stop-color:#7a36b1;stop-opacity:1"
         id="stop4336" />
      <stop
         offset="1"
         style="stop-color:#4c2d81;stop-opacity:1"
         id="stop4338" />
    </linearGradient>
  </defs>
  <metadata
     id="metadata4148">
    <rdf:RDF>
      <cc:Work
         rdf:about="">
        <dc:format>image/svg+xml</dc:format>
        <dc:type
           rdf:resource="http://purl.org/dc/dcmitype/StillImage" />
        <dc:title />
      </cc:Work>
    </rdf:RDF>
  </metadata>
  <g
     transform="matrix(2,0,0,2,0,-16)"
     id="layer1-1">
    <path
       d="m 40.481863,36.421127 a 15.644737,8.3968948 0 1 1 -31.2894745,0 15.644737,8.3968948 0 1 1 31.2894745,0 z"
       transform="matrix(0.52995454,0,0,-0.65783905,0.487385,48.935435)"
       id="path3501"
       style="display:inline;overflow:visible;visibility:visible;opacity:0.14117647;fill:url(#radialGradient3140);fill-opacity:1;fill-rule:evenodd;stroke:none;stroke-width:1;marker:none" />
    <g
       transform="translate(-2,0)"
       id="g4190">
      <path
         d="m 40.481863,36.421127 a 15.644737,8.3968948 0 1 1 -31.2894745,0 15.644737,8.3968948 0 1 1 31.2894745,0 z"
         transform="matrix(0.52995454,0,0,-0.65783905,0.487385,48.935435)"
         id="path3501-0"
         style="display:inline;overflow:visible;visibility:visible;opacity:0.14117647;fill:url(#radialGradient4195);fill-opacity:1;fill-rule:evenodd;stroke:none;stroke-width:1;marker:none" />
    </g>
  </g>
  <path
     d="M 28.724972,38.761094 C 41.952111,29.831922 34.243353,13.433233 19.49995,13.567834 l 0,-8.3611479 L 1.4999674,18.893359 19.49995,32.580013 l 0,-8.343101 c 9.5089,-0.368785 14.694959,8.29364 7.897056,14.524182 z"
     id="path3503-3-3-3"
     style="display:block;overflow:visible;visibility:visible;fill:url(#linearGradient3254-4);fill-opacity:1;fill-rule:nonzero;stroke:none;stroke-width:1;stroke-linecap:butt;stroke-linejoin:round;stroke-miterlimit:7;stroke-dasharray:none;stroke-dashoffset:0;stroke-opacity:1;marker:none" />
  <path
     d="M 30.246244,36.573401 C 39.931692,28.054733 32.253468,13.641931 18.581752,14.572435 L 18.499952,7.1766205 3.0510864,18.870328 18.499952,30.604604 l 0,-7.266198 c 14.184342,-0.323949 14.0029,10.792446 11.746294,13.234995 z"
     id="path3505-6-2"
     style="display:block;overflow:visible;visibility:visible;opacity:0.52999998;fill:none;stroke:url(#linearGradient3198-5-6);stroke-width:0.96392483;stroke-linecap:butt;stroke-linejoin:miter;stroke-miterlimit:7;stroke-dasharray:none;stroke-dashoffset:0;stroke-opacity:1;marker:none" />
  <path
     d="M 28.724972,38.761094 C 41.952111,29.831922 34.243353,13.433233 19.49995,13.567834 l 0,-8.3611478 L 1.4999674,18.893359 19.49995,32.580013 l 0,-8.343101 c 9.5089,-0.368785 14.694959,8.29364 7.897056,14.524182 z"
     id="path3503-3-3-0"
     style="color:#000000;clip-rule:nonzero;display:inline;overflow:visible;visibility:visible;opacity:0.5;isolation:auto;mix-blend-mode:normal;color-interpolation:sRGB;color-interpolation-filters:linearRGB;solid-color:#000000;solid-opacity:1;fill:none;fill-opacity:1;fill-rule:nonzero;stroke:#6326b9;stroke-width:1;stroke-linecap:butt;stroke-linejoin:round;stroke-miterlimit:4;stroke-dasharray:none;stroke-dashoffset:0;stroke-opacity:1;marker:none;color-rendering:auto;image-rendering:auto;shape-rendering:auto;text-rendering:auto;enable-background:accumulate" />
  <path
     d="M 40.725022,38.761094 C 53.952161,29.831922 46.243403,13.433233 31.5,13.567834 L 31.5,5.206686 13.500017,18.893359 31.5,32.580013 l 0,-8.343101 c 9.5089,-0.368785 14.694959,8.29364 7.897056,14.524182 z"
     id="path3503-3"
     style="display:block;overflow:visible;visibility:visible;fill:url(#linearGradient3201);fill-opacity:1;fill-rule:nonzero;stroke:none;stroke-width:1;stroke-linecap:butt;stroke-linejoin:round;stroke-miterlimit:7;stroke-dasharray:none;stroke-dashoffset:0;stroke-opacity:1;marker:none" />
  <path
     d="m 42.246294,36.573401 c 9.685448,-8.518668 2.007224,-22.93147 -11.664492,-22.000966 l -0.0818,-7.3958146 -15.448866,11.6937076 15.448866,11.734276 0,-7.266198 c 14.184342,-0.323949 14.0029,10.792446 11.746294,13.234995 z"
     id="path3505-6"
     style="display:block;overflow:visible;visibility:visible;opacity:0.52999998;fill:none;stroke:url(#linearGradient3198);stroke-width:0.96392483;stroke-linecap:butt;stroke-linejoin:miter;stroke-miterlimit:7;stroke-dasharray:none;stroke-dashoffset:0;stroke-opacity:1;marker:none" />
  <path
     d="M 40.725022,38.761094 C 53.952161,29.831922 46.243403,13.433233 31.5,13.567834 L 31.5,5.2066862 13.500017,18.893359 31.5,32.580013 l 0,-8.343101 c 9.5089,-0.368785 14.694959,8.29364 7.897056,14.524182 z"
     id="path3503-3-4"
     style="display:inline;overflow:visible;visibility:visible;fill:#000000;fill-opacity:0;fill-rule:nonzero;stroke:#00537d;stroke-width:1;stroke-linecap:round;stroke-linejoin:round;stroke-miterlimit:4;stroke-dasharray:none;stroke-dashoffset:0;stroke-opacity:1;marker:none;color:#000000;clip-rule:nonzero;opacity:0.5;isolation:auto;mix-blend-mode:normal;color-interpolation:sRGB;color-interpolation-filters:linearRGB;solid-color:#000000;solid-opacity:1;filter-blend-mode:normal;filter-gaussianBlur-deviation:0;color-rendering:auto;image-rendering:auto;shape-rendering:auto;text-rendering:auto;enable-background:accumulate" />
</svg>

<svg xmlns="http://www.w3.org/2000/svg" xmlns:xlink="http://www.w3.org/1999/xlink" viewBox="0 0 48 48"><defs><linearGradient gradientTransform="matrix(0 -1.1363 -1.22082 0 54.815 53.704)" gradientUnits="userSpaceOnUse" xlink:href="#a" id="k" y2="15.991" x2="20.576" y1="15.991" x1="38.941"/><linearGradient id="a"><stop offset="0" stop-color="#fff"/><stop offset=".512" stop-color="#fff" stop-opacity=".235"/><stop offset=".585" stop-color="#fff" stop-opacity=".157"/><stop offset="1" stop-color="#fff" stop-opacity=".392"/></linearGradient><linearGradient gradientTransform="matrix(-1.04172 0 0 .9696 56.672 1.247)" gradientUnits="userSpaceOnUse" xlink:href="#b" id="j" y2="42.04" x2="23.732" y1="4.418" x1="23.732"/><linearGradient id="b"><stop offset="0" stop-color="#90dbec"/><stop offset=".262" stop-color="#55c1ec"/><stop offset=".705" stop-color="#3689e6"/><stop offset="1" stop-color="#2b63a0"/></linearGradient><radialGradient gradientTransform="matrix(1 0 0 .53672 0 16.873)" gradientUnits="userSpaceOnUse" xlink:href="#c" id="f" fy="36.421" fx="24.837" r="15.645" cy="36.421" cx="24.837"/><linearGradient id="c"><stop offset="0"/><stop offset="1" stop-opacity="0"/></linearGradient><radialGradient gradientTransform="matrix(1 0 0 .53672 0 16.873)" gradientUnits="userSpaceOnUse" xlink:href="#d" id="g" fy="36.421" fx="24.837" r="15.645" cy="36.421" cx="24.837"/><linearGradient id="d"><stop offset="0"/><stop offset="1" stop-opacity="0"/></linearGradient><linearGradient gradientTransform="matrix(0 -1.1363 -1.22082 0 42.815 53.704)" gradientUnits="userSpaceOnUse" xlink:href="#a" id="i" y2="15.991" x2="20.576" y1="15.991" x1="38.941"/><linearGradient gradientTransform="matrix(-1.04172 0 0 .9696 44.672 1.247)" gradientUnits="userSpaceOnUse" xlink:href="#e" id="h" y2="51.899" x2="23.732" y1="4.418" x1="23.732"/><linearGradient id="e"><stop offset="0" stop-color="#f0c1ff"/><stop offset=".262" stop-color="#c5a3f2"/><stop offset=".705" stop-color="#7a36b1"/><stop offset="1" stop-color="#4c2d81"/></linearGradient></defs><path d="M40.482 36.42a15.645 8.397 0 1 1-31.29 0 15.645 8.397 0 1 1 31.29 0z" transform="matrix(1.0599 0 0 -1.31568 .975 81.87)" overflow="visible" opacity=".141" fill="url(#f)" fill-rule="evenodd"/><path d="M40.482 36.42a15.645 8.397 0 1 1-31.29 0 15.645 8.397 0 1 1 31.29 0z" transform="matrix(1.0599 0 0 -1.31568 -3.025 81.87)" overflow="visible" opacity=".141" fill="url(#g)" fill-rule="evenodd"/><path d="M28.725 38.76c13.227-8.928 5.518-25.327-9.225-25.192v-8.36l-18 13.685 18 13.687v-8.343c9.51-.37 14.695 8.294 7.897 14.524z" display="block" overflow="visible" fill="url(#h)"/><path d="M30.246 36.573c9.686-8.518 2.007-22.93-11.664-22L18.5 7.176 3.05 18.87 18.5 30.605v-7.267c14.184-.324 14.003 10.793 11.746 13.235z" display="block" overflow="visible" opacity=".53" fill="none" stroke="url(#i)" stroke-width=".964" stroke-miterlimit="7"/><path d="M28.725 38.76c13.227-8.928 5.518-25.327-9.225-25.192v-8.36l-18 13.685 18 13.687v-8.343c9.51-.37 14.695 8.294 7.897 14.524z" style="isolation:auto;mix-blend-mode:normal" color="#000" overflow="visible" opacity=".5" fill="none" stroke="#6326b9" stroke-linejoin="round"/><path d="M40.725 38.76c13.227-8.928 5.518-25.327-9.225-25.192v-8.36l-18 13.685 18 13.687v-8.343c9.51-.37 14.695 8.294 7.897 14.524z" display="block" overflow="visible" fill="url(#j)"/><path d="M42.246 36.573c9.686-8.518 2.008-22.93-11.664-22L30.5 7.176 15.05 18.87 30.5 30.605v-7.267c14.184-.324 14.003 10.793 11.746 13.235z" display="block" overflow="visible" opacity=".53" fill="none" stroke="url(#k)" stroke-width=".964" stroke-miterlimit="7"/><path d="M40.725 38.76c13.227-8.928 5.518-25.327-9.225-25.192v-8.36l-18 13.685 18 13.687v-8.343c9.51-.37 14.695 8.294 7.897 14.524z" style="isolation:auto;mix-blend-mode:normal;filter-blend-mode:normal;filter-gaussianBlur-deviation:0" overflow="visible" stroke="#00537d" stroke-linecap="round" stroke-linejoin="round" color="#000" opacity=".5" fill="none"/></svg>
